X:1
T:Lerman, 77.77 D
T:Joseph W. Lerman, 1911
T:Lerman, 77.77 D
T:Public Domain
C:Joseph W. Lerman, 1911
Z:Public Domain
%%score ( 1 2 ) 3
L:1/8
M:3/4
K:Eb
V:1 treble 
V:2 treble 
V:3 bass 
V:1
 E>[EF] | [EG]3 [EB] [DG][DF] | E4 [EG]>[FA] | [GB]3 [Be] [Bd][Ac] | [GB]4 [Gc]>[GB] | %5
 [FA]3 [Fc] [FB][DA] | [EG]4 [^C=A]>[CG] | [DF]3 F [EG][E=A] | [DB]4 [DB]>[DB] | %9
 [Ee]3 [Ee] [Ed]>[Ec] | [DB]4 [DB]>[DB] | [=Ec]3 [EB] [EA][EG] | [FA]4 [DG]>[DF] | %13
 [CE]3 [DF] [EG][FB] | [Ee]4 E[EF] | [EG][EB] [EG]2 [DF]2 | E4 |] %17
V:2
 E3/2 x/ | x6 | E4 x2 | x6 | x6 | x6 | x6 | x3 F x2 | x6 | x6 | x6 | x6 | x6 | x6 | x4 E x | x6 | %16
 E4 |] %17
V:3
 [E,G,]>[E,A,] | [E,B,]3 [E,G,] [B,,B,][B,,A,] | [E,G,]4 [E,B,]>[E,B,] | [E,E]3 [G,E] [A,E][A,E] | %4
 [E,E]4 [=E,C]>[E,C] | [F,C]3 [E,A,] [D,B,][B,,B,] | [E,B,]4 [=E,B,]>[E,B,] | %7
 [F,B,]3 [F,D] [F,C][F,C] | [B,,B,]4 [A,B,]>[A,B,] | [G,B,]3 [G,B,] [^F,=A,]>[F,A,] | %10
 [F,A,]4 [F,A,]>[F,A,] | [C,G,]3 [C,_D] [C,C][C,C] | [F,C]4 [B,,B,]>[=B,,A,] | %13
 [C,G,]3 [B,,B,] [E,B,][D,B,] | [C,C]4 [_C,=A,][C,A,] | [B,,B,][B,,G,] [B,,B,]2 [B,,A,]2 | %16
 [E,G,]4 |] %17

